X: 21076
T: Just Cruising
R: reel
M: 4/4
K: Dmajor
G|:FA~A2 ABAG|FA~A2 BAGA|FA~A2 ABAF|1 GFEF GBAG:|2 GFEF GBag||
f2df eAce|dBGA BAAg|f2df eAcA|GAAG FDDg|
f2df eAcA|dBGA BAAF|G2BG FGAF|EAAG FDDG||

